client/public/assets/icons/custom/custom108.svg

<?xml version="1.0" encoding="UTF-8" standalone="no"?>
<svg width="100px" height="100px" viewBox="0 0 100 100" version="1.1" xmlns="http://www.w3.org/2000/svg" xmlns:xlink="http://www.w3.org/1999/xlink">
    <g stroke="none" stroke-width="1" fill="none" fill-rule="evenodd">
        <path d="M47.9,60.35 L48.32,57.53 L52.28,54.8 L51.41,51.08 L50.87,51.08 L46.67,50.75 L45.05,48.47 L45.98,43.67 L42.86,41.66 L42.47,42.05 L39.32,44.84 L36.62,44.42 L33.98,40.34 L30.41,41.24 L30.41,41.81 L30.11,46.1 L27.89,47.78 L23.21,46.79 L21.29,50.06 L21.65,50.48 L24.35,53.75 L23.96,56.57 L20,59.27 L20.87,62.96 L21.41,63.02 L25.55,63.35 L27.2,65.6 L26.24,70.4 L29.39,72.38 L29.81,72.02 L32.96,69.2 L35.66,69.62 L38.27,73.7 L41.87,72.8 L41.87,72.2 L42.14,68 L44.36,66.32 L48.98,67.31 L50.9,64.04 L50.54,63.62 L47.9,60.38 L47.9,60.35 Z M42.41,61.01 C41.4410494,62.7171006 39.8171236,63.9545896 37.9141509,64.4359964 C36.0111781,64.9174032 33.9941517,64.6009884 32.33,63.56 C28.8571247,61.2949311 27.7632774,56.7086798 29.84,53.12 C30.8038159,51.4078632 32.4254616,50.1639749 34.3288808,49.6767902 C36.2323001,49.1896055 38.2521385,49.5014472 39.92,50.54 C43.4103014,52.8068235 44.5061331,57.4145975 42.41,61.01 L42.41,61.01 Z" id="6b359f55-0656-400a-97bc-b9d0a0f529d7" fill="#FFFFFF"></path>
        <path d="M75.65,46.28 L76.07,43.46 L80,40.76 L79.13,37.07 L78.59,37.07 L74.45,36.74 L72.8,34.4 L73.73,29.6 L70.58,27.62 L70.16,27.98 L67.01,30.77 L64.31,30.35 L61.73,26.27 L58.13,27.17 L58.07,27.77 L57.8,32 L55.58,33.68 L50.96,32.72 L49.04,35.99 L49.4,36.44 L52.1,39.71 L51.68,42.53 L47.75,45.2 L48.62,48.92 L49.16,48.92 L53.3,49.25 L54.92,51.56 L53.96,56.36 L57.11,58.4 L57.53,58.04 L60.68,55.22 L63.38,55.64 L65.99,59.72 L69.56,58.82 L69.59,58.25 L69.89,53.96 L72.11,52.28 L76.76,53.24 L78.68,49.97 L78.32,49.55 L75.65,46.28 L75.65,46.28 Z M70.13,46.94 C69.1610494,48.6471006 67.5371236,49.8845896 65.6341509,50.3659964 C63.7311781,50.8474032 61.7141517,50.5309884 60.05,49.49 C56.5662708,47.2304821 55.4815907,42.6272057 57.59,39.05 C58.5538159,37.3378632 60.1754616,36.0939749 62.0788808,35.6067902 C63.9823001,35.1196055 66.0021385,35.4314473 67.67,36.47 C71.149662,38.7463974 72.2318259,43.3521928 70.13,46.94 L70.13,46.94 Z" id="b690964b-423a-4b4d-905a-4093b544a009" fill="#FFFFFF"></path>
    </g>
</svg>

<?xml version="1.0"?><svg width="100" height="100" viewBox="0 0 100 100" xmlns="http://www.w3.org/2000/svg"><g fill="#fff"><path d="m47.9 60.4l0.4-2.9 4-2.7-0.9-3.7h-0.5l-4.2-0.3-1.6-2.3 0.9-4.8-3.1-2-0.4 0.4-3.2 2.7-2.7-0.4-2.6-4.1-3.6 0.9v0.6l-0.3 4.3-2.2 1.7-4.7-1-1.9 3.3 0.4 0.4 2.7 3.3-0.4 2.8-4 2.7 0.9 3.7 0.5 0 4.2 0.4 1.6 2.2-1 4.8 3.2 2 0.4-0.4 3.2-2.8 2.7 0.4 2.6 4.1 3.6-0.9v-0.6l0.2-4.2 2.3-1.7 4.6 1 1.9-3.3-0.4-0.4-2.6-3.2v0z m-5.5 0.6c-1 1.7-2.6 3-4.5 3.4-1.9 0.5-3.9 0.2-5.6-0.8-3.4-2.3-4.5-6.9-2.5-10.5 1-1.7 2.6-2.9 4.5-3.4 1.9-0.5 4-0.2 5.6 0.8 3.5 2.3 4.6 6.9 2.5 10.5z"></path><path d="m75.7 46.3l0.4-2.8 3.9-2.7-0.9-3.7h-0.5l-4.1-0.4-1.7-2.3 0.9-4.8-3.1-2-0.4 0.4-3.2 2.8-2.7-0.4-2.6-4.1-3.6 0.9 0 0.6-0.3 4.2-2.2 1.7-4.6-1-2 3.3 0.4 0.4 2.7 3.3-0.4 2.8-3.9 2.7 0.8 3.7h0.6l4.1 0.4 1.6 2.3-0.9 4.8 3.1 2 0.4-0.4 3.2-2.8 2.7 0.4 2.6 4.1 3.6-0.9 0-0.5 0.3-4.3 2.2-1.7 4.7 0.9 1.9-3.2-0.4-0.4-2.7-3.3z m-5.6 0.6c-0.9 1.7-2.6 3-4.5 3.5-1.9 0.4-3.9 0.1-5.5-0.9-3.5-2.3-4.6-6.9-2.5-10.4 1-1.8 2.6-3 4.5-3.5 1.9-0.5 3.9-0.2 5.6 0.9 3.5 2.2 4.5 6.9 2.4 10.4z"></path></g></svg>
